X:23
T:Wild Goose. Ru1.103, The
%%VWML:RutherfordVol1-2248-p52-0p52
Z:Transcription by Village Music Project, Steve Mansfield July 2015
F:http://www.village-music-project.org.uk/
F:http://www.vwml.org/record/RutherfordVol1/2248/p52
L:1/8
Q:1/4=100
N:NB the final note of each part is given as a quaver in the original. I have altered it to a crotchet
K:D
"tr"F2AF G/G/G BG|"tr"F2AF G/F/E/D/ CE|F2AF G/G/G BG|AFdF D/D/D "NB"D2:|
|:pafdf "tr"e>def|dBAF G/F/E/D/ CE|afdf "tr"e>def|dB"tr"A>F D/D/D D2:|
W:The first Couple sets to the 2d. Wo. & Hands
W:round 3 .| the same to the Man :| Hands round
W:all 4 with the 2d. Couple .|. Right Hand & Left
W:into the 2d. Couples place :|
|:
T:Weezle. Ru1.104, The
B:Rutherford's Country Dances Vol 1, 1756
Z:village music project, Ruairidh Greig July 2015
T:Owlets and Weasels,aka. Ru1.104
T:Howlets and Weezles,aka. Ru1.104
M:6/8
L:1/8
Q:1/4=120
K:A
A>BA c2d|e>fee2a|g2bB2d|c>BcA3|
A>BA c2d|e>fee2a|g2bB2^d|e6:|
|:e>fee2c'|d>edd2b|cBA edc|B6|
A>BAc2d|e>fee2a|ecA dBG|"rpt mark added"A6:|
W:The first Man sets to the 2d. Wo. & turn his
W:own Partner .| The first Wo. does the same with
W:the 2d. Man Lead down the Middle & up again
W:& cast off :|  Right Hand & Left Quite round
W:with the 2d. Couple :|
|:
